bernoullicharts/pow_x_1_3__mean.svg

<?xml version="1.0" encoding="utf-8" standalone="no"?>
<!DOCTYPE svg PUBLIC "-//W3C//DTD SVG 1.1//EN"
  "http://www.w3.org/Graphics/SVG/1.1/DTD/svg11.dtd">
<!-- Created with matplotlib (https://matplotlib.org/) -->
<svg height="345.6pt" version="1.1" viewBox="0 0 460.8 345.6" width="460.8pt" xmlns="http://www.w3.org/2000/svg" xmlns:xlink="http://www.w3.org/1999/xlink">
 <defs>
  <style type="text/css">
*{stroke-linecap:butt;stroke-linejoin:round;}
  </style>
 </defs>
 <g id="figure_1">
  <g id="patch_1">
   <path d="M 0 345.6 
L 460.8 345.6 
L 460.8 0 
L 0 0 
z
" style="fill:#ffffff;"/>
  </g>
  <g id="axes_1">
   <g id="patch_2">
    <path d="M 57.6 307.584 
L 414.72 307.584 
L 414.72 41.472 
L 57.6 41.472 
z
" style="fill:#ffffff;"/>
   </g>
   <g id="matplotlib.axis_1">
    <g id="xtick_1">
     <g id="line2d_1">
      <defs>
       <path d="M 0 0 
L 0 3.5 
" id="mb94fd11167" style="stroke:#000000;stroke-width:0.8;"/>
      </defs>
      <g>
       <use style="stroke:#000000;stroke-width:0.8;" x="73.800255" xlink:href="#mb94fd11167" y="307.584"/>
      </g>
     </g>
     <g id="text_1">
      <text style="font-family:DejaVu Sans;font-size:10px;font-style:normal;font-weight:normal;text-anchor:middle;" transform="rotate(-0, 73.800255, 322.182437)" x="73.800255" y="322.182437">0.0</text>
     </g>
    </g>
    <g id="xtick_2">
     <g id="line2d_2">
      <g>
       <use style="stroke:#000000;stroke-width:0.8;" x="138.744153" xlink:href="#mb94fd11167" y="307.584"/>
      </g>
     </g>
     <g id="text_2">
      <text style="font-family:DejaVu Sans;font-size:10px;font-style:normal;font-weight:normal;text-anchor:middle;" transform="rotate(-0, 138.744153, 322.182437)" x="138.744153" y="322.182437">0.2</text>
     </g>
    </g>
    <g id="xtick_3">
     <g id="line2d_3">
      <g>
       <use style="stroke:#000000;stroke-width:0.8;" x="203.688051" xlink:href="#mb94fd11167" y="307.584"/>
      </g>
     </g>
     <g id="text_3">
      <text style="font-family:DejaVu Sans;font-size:10px;font-style:normal;font-weight:normal;text-anchor:middle;" transform="rotate(-0, 203.688051, 322.182437)" x="203.688051" y="322.182437">0.4</text>
     </g>
    </g>
    <g id="xtick_4">
     <g id="line2d_4">
      <g>
       <use style="stroke:#000000;stroke-width:0.8;" x="268.631949" xlink:href="#mb94fd11167" y="307.584"/>
      </g>
     </g>
     <g id="text_4">
      <text style="font-family:DejaVu Sans;font-size:10px;font-style:normal;font-weight:normal;text-anchor:middle;" transform="rotate(-0, 268.631949, 322.182437)" x="268.631949" y="322.182437">0.6</text>
     </g>
    </g>
    <g id="xtick_5">
     <g id="line2d_5">
      <g>
       <use style="stroke:#000000;stroke-width:0.8;" x="333.575847" xlink:href="#mb94fd11167" y="307.584"/>
      </g>
     </g>
     <g id="text_5">
      <text style="font-family:DejaVu Sans;font-size:10px;font-style:normal;font-weight:normal;text-anchor:middle;" transform="rotate(-0, 333.575847, 322.182437)" x="333.575847" y="322.182437">0.8</text>
     </g>
    </g>
    <g id="xtick_6">
     <g id="line2d_6">
      <g>
       <use style="stroke:#000000;stroke-width:0.8;" x="398.519745" xlink:href="#mb94fd11167" y="307.584"/>
      </g>
     </g>
     <g id="text_6">
      <text style="font-family:DejaVu Sans;font-size:10px;font-style:normal;font-weight:normal;text-anchor:middle;" transform="rotate(-0, 398.519745, 322.182437)" x="398.519745" y="322.182437">1.0</text>
     </g>
    </g>
    <g id="text_7">
     <text style="font-family:DejaVu Sans;font-size:10px;font-style:normal;font-weight:normal;text-anchor:middle;" transform="rotate(-0, 236.16, 335.860562)" x="236.16" y="335.860562">Input Coin's Heads Probability (λ)</text>
    </g>
   </g>
   <g id="matplotlib.axis_2">
    <g id="ytick_1">
     <g id="line2d_7">
      <defs>
       <path d="M 0 0 
L -3.5 0 
" id="m408b6c0e3d" style="stroke:#000000;stroke-width:0.8;"/>
      </defs>
      <g>
       <use style="stroke:#000000;stroke-width:0.8;" x="57.6" xlink:href="#m408b6c0e3d" y="306.094096"/>
      </g>
     </g>
     <g id="text_8">
      <text style="font-family:DejaVu Sans;font-size:10px;font-style:normal;font-weight:normal;text-anchor:end;" transform="rotate(-0, 50.6, 309.893315)" x="50.6" y="309.893315">0.0</text>
     </g>
    </g>
    <g id="ytick_2">
     <g id="line2d_8">
      <g>
       <use style="stroke:#000000;stroke-width:0.8;" x="57.6" xlink:href="#m408b6c0e3d" y="255.588877"/>
      </g>
     </g>
     <g id="text_9">
      <text style="font-family:DejaVu Sans;font-size:10px;font-style:normal;font-weight:normal;text-anchor:end;" transform="rotate(-0, 50.6, 259.388096)" x="50.6" y="259.388096">0.2</text>
     </g>
    </g>
    <g id="ytick_3">
     <g id="line2d_9">
      <g>
       <use style="stroke:#000000;stroke-width:0.8;" x="57.6" xlink:href="#m408b6c0e3d" y="205.083658"/>
      </g>
     </g>
     <g id="text_10">
      <text style="font-family:DejaVu Sans;font-size:10px;font-style:normal;font-weight:normal;text-anchor:end;" transform="rotate(-0, 50.6, 208.882876)" x="50.6" y="208.882876">0.4</text>
     </g>
    </g>
    <g id="ytick_4">
     <g id="line2d_10">
      <g>
       <use style="stroke:#000000;stroke-width:0.8;" x="57.6" xlink:href="#m408b6c0e3d" y="154.578438"/>
      </g>
     </g>
     <g id="text_11">
      <text style="font-family:DejaVu Sans;font-size:10px;font-style:normal;font-weight:normal;text-anchor:end;" transform="rotate(-0, 50.6, 158.377657)" x="50.6" y="158.377657">0.6</text>
     </g>
    </g>
    <g id="ytick_5">
     <g id="line2d_11">
      <g>
       <use style="stroke:#000000;stroke-width:0.8;" x="57.6" xlink:href="#m408b6c0e3d" y="104.073219"/>
      </g>
     </g>
     <g id="text_12">
      <text style="font-family:DejaVu Sans;font-size:10px;font-style:normal;font-weight:normal;text-anchor:end;" transform="rotate(-0, 50.6, 107.872438)" x="50.6" y="107.872438">0.8</text>
     </g>
    </g>
    <g id="ytick_6">
     <g id="line2d_12">
      <g>
       <use style="stroke:#000000;stroke-width:0.8;" x="57.6" xlink:href="#m408b6c0e3d" y="53.568"/>
      </g>
     </g>
     <g id="text_13">
      <text style="font-family:DejaVu Sans;font-size:10px;font-style:normal;font-weight:normal;text-anchor:end;" transform="rotate(-0, 50.6, 57.367219)" x="50.6" y="57.367219">1.0</text>
     </g>
    </g>
    <g id="text_14">
     <text style="font-family:DejaVu Sans;font-size:10px;font-style:normal;font-weight:normal;text-anchor:middle;" transform="rotate(-90, 28.617187, 174.528)" x="28.617187" y="174.528">Simulated Mean / Function Value</text>
    </g>
   </g>
   <g id="line2d_13">
    <path clip-path="url(#p2b77477a6c)" d="M 73.832727 294.372873 
L 77.112066 251.330497 
L 80.391405 237.209222 
L 83.670744 227.283787 
L 86.950083 219.375914 
L 90.229421 212.695148 
L 93.50876 206.853802 
L 96.788099 201.629397 
L 100.067438 196.881019 
L 103.346777 192.513119 
L 106.626116 188.457571 
L 109.905455 184.663891 
L 113.184793 181.093505 
L 116.464132 177.7162 
L 119.743471 174.507816 
L 123.02281 171.448693 
L 126.302149 168.522597 
L 129.581488 165.715946 
L 132.860826 163.017249 
L 136.140165 160.416689 
L 139.419504 157.905802 
L 142.698843 155.477237 
L 145.978182 153.124561 
L 149.257521 150.842109 
L 152.53686 148.624865 
L 155.816198 146.468362 
L 159.095537 144.368603 
L 162.374876 142.321998 
L 165.654215 140.325304 
L 168.933554 138.375585 
L 172.212893 136.470173 
L 175.492231 134.606633 
L 178.77157 132.782738 
L 182.050909 130.996444 
L 185.330248 129.245871 
L 188.609587 127.529286 
L 191.888926 125.845085 
L 195.168264 124.191783 
L 198.447603 122.568 
L 201.726942 120.972453 
L 205.006281 119.403945 
L 208.28562 117.86136 
L 211.564959 116.343652 
L 214.844298 114.849842 
L 218.123636 113.379011 
L 221.402975 111.930295 
L 224.682314 110.50288 
L 227.961653 109.096001 
L 231.240992 107.708935 
L 234.520331 106.340999 
L 237.799669 104.991546 
L 241.079008 103.659964 
L 244.358347 102.345673 
L 247.637686 101.048123 
L 250.917025 99.76679 
L 254.196364 98.501178 
L 257.475702 97.250811 
L 260.755041 96.015241 
L 264.03438 94.794036 
L 267.313719 93.586785 
L 270.593058 92.393098 
L 273.872397 91.2126 
L 277.151736 90.044931 
L 280.431074 88.889749 
L 283.710413 87.746726 
L 286.989752 86.615547 
L 290.269091 85.495908 
L 293.54843 84.387522 
L 296.827769 83.290108 
L 300.107107 82.203399 
L 303.386446 81.127139 
L 306.665785 80.061079 
L 309.945124 79.004981 
L 313.224463 77.958616 
L 316.503802 76.921762 
L 319.78314 75.894207 
L 323.062479 74.875744 
L 326.341818 73.866175 
L 329.621157 72.865308 
L 332.900496 71.872959 
L 336.179835 70.888948 
L 339.459174 69.913102 
L 342.738512 68.945254 
L 346.017851 67.985242 
L 349.29719 67.03291 
L 352.576529 66.088105 
L 355.855868 65.150681 
L 359.135207 64.220495 
L 362.414545 63.297409 
L 365.693884 62.381289 
L 368.973223 61.472005 
L 372.252562 60.569432 
L 375.531901 59.673445 
L 378.81124 58.783928 
L 382.090579 57.900763 
L 385.369917 57.02384 
L 388.649256 56.153048 
L 391.928595 55.288282 
L 395.207934 54.429439 
L 398.487273 53.576418 
" style="fill:none;stroke:#1f77b4;stroke-linecap:square;stroke-width:1.5;"/>
   </g>
   <g id="line2d_14">
    <path clip-path="url(#p2b77477a6c)" d="M 73.832727 295.488 
L 77.112066 256.093929 
L 80.391405 236.901946 
L 83.670744 228.821111 
L 86.950083 222.255432 
L 90.229421 224.780693 
L 93.50876 207.608919 
L 96.788099 203.063449 
L 100.067438 199.528084 
L 103.346777 192.962405 
L 106.626116 190.437144 
L 109.905455 183.366413 
L 113.184793 175.79063 
L 116.464132 169.224952 
L 119.743471 178.315891 
L 123.02281 173.770422 
L 126.302149 165.184534 
L 129.581488 167.709795 
L 132.860826 159.62896 
L 136.140165 167.204743 
L 139.419504 149.527916 
L 142.698843 157.608752 
L 145.978182 155.083491 
L 149.257521 152.55823 
L 152.53686 144.477395 
L 155.816198 161.144117 
L 159.095537 151.548125 
L 162.374876 139.931925 
L 165.654215 142.457186 
L 168.933554 132.861194 
L 172.212893 131.85109 
L 175.492231 138.92182 
L 178.77157 135.386455 
L 182.050909 130.840985 
L 185.330248 128.315724 
L 188.609587 133.871299 
L 191.888926 126.295516 
L 195.168264 117.204576 
L 198.447603 130.840985 
L 201.726942 124.780359 
L 205.006281 116.194472 
L 208.28562 116.194472 
L 211.564959 113.164159 
L 214.844298 121.244994 
L 218.123636 111.649002 
L 221.402975 113.669211 
L 224.682314 101.042906 
L 227.961653 107.608585 
L 231.240992 107.103532 
L 234.520331 101.042906 
L 237.799669 104.578271 
L 241.079008 99.022697 
L 244.358347 105.083324 
L 247.637686 104.578271 
L 250.917025 105.588376 
L 254.196364 97.002489 
L 257.475702 89.426706 
L 260.755041 104.578271 
L 264.03438 98.517645 
L 267.313719 89.931758 
L 270.593058 93.467123 
L 273.872397 92.962071 
L 277.151736 88.416601 
L 280.431074 88.921653 
L 283.710413 88.416601 
L 286.989752 91.446914 
L 290.269091 86.396392 
L 293.54843 80.840818 
L 296.827769 86.901445 
L 300.107107 79.830714 
L 303.386446 76.800401 
L 306.665785 83.871132 
L 309.945124 75.790296 
L 313.224463 79.325662 
L 316.503802 79.325662 
L 319.78314 76.295349 
L 323.062479 79.325662 
L 326.341818 71.749879 
L 329.621157 70.739775 
L 332.900496 63.669044 
L 336.179835 74.27514 
L 339.459174 66.194305 
L 342.738512 64.679148 
L 346.017851 69.224618 
L 349.29719 64.174096 
L 352.576529 67.709461 
L 355.855868 63.163992 
L 359.135207 61.648835 
L 362.414545 64.174096 
L 365.693884 64.679148 
L 368.973223 60.638731 
L 372.252562 60.133678 
L 375.531901 60.638731 
L 378.81124 60.133678 
L 382.090579 58.618522 
L 385.369917 55.588209 
L 388.649256 55.588209 
L 391.928595 54.578104 
L 395.207934 56.093261 
L 398.487273 53.568 
" style="fill:none;stroke:#ff7f0e;stroke-linecap:square;stroke-width:1.5;"/>
   </g>
   <g id="patch_3">
    <path d="M 57.6 307.584 
L 57.6 41.472 
" style="fill:none;stroke:#000000;stroke-linecap:square;stroke-linejoin:miter;stroke-width:0.8;"/>
   </g>
   <g id="patch_4">
    <path d="M 414.72 307.584 
L 414.72 41.472 
" style="fill:none;stroke:#000000;stroke-linecap:square;stroke-linejoin:miter;stroke-width:0.8;"/>
   </g>
   <g id="patch_5">
    <path d="M 57.6 307.584 
L 414.72 307.584 
" style="fill:none;stroke:#000000;stroke-linecap:square;stroke-linejoin:miter;stroke-width:0.8;"/>
   </g>
   <g id="patch_6">
    <path d="M 57.6 41.472 
L 414.72 41.472 
" style="fill:none;stroke:#000000;stroke-linecap:square;stroke-linejoin:miter;stroke-width:0.8;"/>
   </g>
   <g id="text_15">
    <text style="font-family:DejaVu Sans;font-size:12px;font-style:normal;font-weight:normal;" transform="translate(112.047188 22.034625)">Simulated Mean for pow(x,1/3) Algorithm</text>
    <text style="font-family:DejaVu Sans;font-size:12px;font-style:normal;font-weight:normal;" transform="translate(132.609375 35.472)">(Wasserstein Distances in Legend)</text>
   </g>
   <g id="legend_1">
    <g id="patch_7">
     <path d="M 64.6 78.82825 
L 242.85 78.82825 
Q 244.85 78.82825 244.85 76.82825 
L 244.85 48.472 
Q 244.85 46.472 242.85 46.472 
L 64.6 46.472 
Q 62.6 46.472 62.6 48.472 
L 62.6 76.82825 
Q 62.6 78.82825 64.6 78.82825 
z
" style="fill:#ffffff;opacity:0.8;stroke:#cccccc;stroke-linejoin:miter;"/>
    </g>
    <g id="line2d_15">
     <path d="M 66.6 54.570437 
L 86.6 54.570437 
" style="fill:none;stroke:#1f77b4;stroke-linecap:square;stroke-width:1.5;"/>
    </g>
    <g id="line2d_16"/>
    <g id="text_16">
     <text style="font-family:DejaVu Sans;font-size:10px;font-style:normal;font-weight:normal;text-anchor:start;" transform="rotate(-0, 94.6, 58.070437)" x="94.6" y="58.070437">pow(x,1/3)</text>
    </g>
    <g id="line2d_17">
     <path d="M 66.6 69.248562 
L 86.6 69.248562 
" style="fill:none;stroke:#ff7f0e;stroke-linecap:square;stroke-width:1.5;"/>
    </g>
    <g id="line2d_18"/>
    <g id="text_17">
     <text style="font-family:DejaVu Sans;font-size:10px;font-style:normal;font-weight:normal;text-anchor:start;" transform="rotate(-0, 94.6, 72.748562)" x="94.6" y="72.748562">Simul. Mean (WD=0.005447)</text>
    </g>
   </g>
  </g>
 </g>
 <defs>
  <clipPath id="p2b77477a6c">
   <rect height="266.112" width="357.12" x="57.6" y="41.472"/>
  </clipPath>
 </defs>
</svg>

<svg height="460.8" viewBox="0 0 460.8 345.6" width="614.4" xmlns="http://www.w3.org/2000/svg" xmlns:xlink="http://www.w3.org/1999/xlink"><defs><style>*{stroke-linecap:butt;stroke-linejoin:round}</style></defs><g id="figure_1"><path d="M0 345.6h460.8V0H0z" fill="#fff" id="patch_1"/><g id="axes_1"><path d="M57.6 307.584h357.12V41.472H57.6z" fill="#fff" id="patch_2"/><g id="matplotlib.axis_1"><g id="xtick_1"><g id="line2d_1"><defs><path d="M0 0v3.5" id="mb94fd11167" stroke="#000" stroke-width=".8"/></defs><use x="73.8" xlink:href="#mb94fd11167" y="307.584" stroke="#000" stroke-width=".8"/></g><text x="73.8" y="322.182" font-family="DejaVu Sans" font-size="10" font-weight="400" text-anchor="middle" id="text_1">0.0</text></g><g id="xtick_2"><use x="138.744" xlink:href="#mb94fd11167" y="307.584" stroke="#000" stroke-width=".8" id="line2d_2"/><text x="138.744" y="322.182" font-family="DejaVu Sans" font-size="10" font-weight="400" text-anchor="middle" id="text_2">0.2</text></g><g id="xtick_3"><use x="203.688" xlink:href="#mb94fd11167" y="307.584" stroke="#000" stroke-width=".8" id="line2d_3"/><text x="203.688" y="322.182" font-family="DejaVu Sans" font-size="10" font-weight="400" text-anchor="middle" id="text_3">0.4</text></g><g id="xtick_4"><use x="268.632" xlink:href="#mb94fd11167" y="307.584" stroke="#000" stroke-width=".8" id="line2d_4"/><text x="268.632" y="322.182" font-family="DejaVu Sans" font-size="10" font-weight="400" text-anchor="middle" id="text_4">0.6</text></g><g id="xtick_5"><use x="333.576" xlink:href="#mb94fd11167" y="307.584" stroke="#000" stroke-width=".8" id="line2d_5"/><text x="333.576" y="322.182" font-family="DejaVu Sans" font-size="10" font-weight="400" text-anchor="middle" id="text_5">0.8</text></g><g id="xtick_6"><use x="398.52" xlink:href="#mb94fd11167" y="307.584" stroke="#000" stroke-width=".8" id="line2d_6"/><text x="398.52" y="322.182" font-family="DejaVu Sans" font-size="10" font-weight="400" text-anchor="middle" id="text_6">1.0</text></g><text x="236.16" y="335.861" font-family="DejaVu Sans" font-size="10" font-weight="400" text-anchor="middle" id="text_7">Input Coin&apos;s Heads Probability (λ)</text></g><g id="matplotlib.axis_2"><g id="ytick_1"><g id="line2d_7"><defs><path d="M0 0h-3.5" id="m408b6c0e3d" stroke="#000" stroke-width=".8"/></defs><use x="57.6" xlink:href="#m408b6c0e3d" y="306.094" stroke="#000" stroke-width=".8"/></g><text x="50.6" y="309.893" font-family="DejaVu Sans" font-size="10" font-weight="400" text-anchor="end" id="text_8">0.0</text></g><g id="ytick_2"><use x="57.6" xlink:href="#m408b6c0e3d" y="255.589" stroke="#000" stroke-width=".8" id="line2d_8"/><text x="50.6" y="259.388" font-family="DejaVu Sans" font-size="10" font-weight="400" text-anchor="end" id="text_9">0.2</text></g><g id="ytick_3"><use x="57.6" xlink:href="#m408b6c0e3d" y="205.084" stroke="#000" stroke-width=".8" id="line2d_9"/><text x="50.6" y="208.883" font-family="DejaVu Sans" font-size="10" font-weight="400" text-anchor="end" id="text_10">0.4</text></g><g id="ytick_4"><use x="57.6" xlink:href="#m408b6c0e3d" y="154.578" stroke="#000" stroke-width=".8" id="line2d_10"/><text x="50.6" y="158.378" font-family="DejaVu Sans" font-size="10" font-weight="400" text-anchor="end" id="text_11">0.6</text></g><g id="ytick_5"><use x="57.6" xlink:href="#m408b6c0e3d" y="104.073" stroke="#000" stroke-width=".8" id="line2d_11"/><text x="50.6" y="107.872" font-family="DejaVu Sans" font-size="10" font-weight="400" text-anchor="end" id="text_12">0.8</text></g><g id="ytick_6"><use x="57.6" xlink:href="#m408b6c0e3d" y="53.568" stroke="#000" stroke-width=".8" id="line2d_12"/><text x="50.6" y="57.367" font-family="DejaVu Sans" font-size="10" font-weight="400" text-anchor="end" id="text_13">1.0</text></g><text transform="rotate(-90 28.617 174.528)" x="28.617" y="174.528" font-family="DejaVu Sans" font-size="10" font-weight="400" text-anchor="middle" id="text_14">Simulated Mean / Function Value</text></g><path clip-path="url(#p2b77477a6c)" d="M73.833 294.373l3.28-43.043 3.278-14.12 3.28-9.926 3.28-7.908 3.278-6.68 3.28-5.842 3.28-5.225 3.278-4.748 3.28-4.368 3.28-4.055 3.278-3.794 3.28-3.57 3.28-3.378 3.278-3.208 3.28-3.06 3.28-2.925 3.278-2.807 3.28-2.699 3.28-2.6 3.279-2.511 3.279-2.429 3.28-2.352 3.279-2.283 3.279-2.217 3.28-2.157 3.279-2.1 3.279-2.046 3.28-1.997 3.279-1.95 3.279-1.905 3.28-1.863 3.279-1.824 3.279-1.787 3.28-1.75 3.279-1.717 3.279-1.684 3.28-1.653 3.279-1.624 3.279-1.596 3.28-1.568 3.279-1.543 3.279-1.517 3.28-1.494 3.279-1.471 3.279-1.449 3.28-1.427 3.279-1.407 3.279-1.387 3.28-1.368 3.279-1.35 3.279-1.331 3.28-1.314 3.279-1.298 3.279-1.281 3.28-1.266 3.279-1.25 3.279-1.236 3.28-1.221 3.279-1.207 3.28-1.194 3.278-1.18 3.28-1.168 3.28-1.155 3.278-1.143 3.28-1.131 3.28-1.12 3.278-1.108 3.28-1.098 3.28-1.087 3.278-1.076 3.28-1.066 3.28-1.056 3.278-1.046 3.28-1.037 3.28-1.028 3.278-1.018 3.28-1.01 3.28-1 3.278-.993 3.28-.984 3.28-.976 3.279-.968 3.279-.96 3.28-.952 3.279-.945 3.279-.937 3.28-.93 3.279-.924 3.279-.916 3.28-.909 3.279-.903 3.279-.896 3.28-.89 3.279-.882 3.279-.877 3.28-.871 3.279-.865 3.279-.859 3.28-.853" fill="none" stroke="#1f77b4" stroke-linecap="square" stroke-width="1.5" id="line2d_13"/><path clip-path="url(#p2b77477a6c)" d="M73.833 295.488l3.28-39.394 3.278-19.192 3.28-8.08 3.28-6.567 3.278 2.526 3.28-17.172 3.28-4.546 3.278-3.535 3.28-6.566 3.28-2.525 3.278-7.07 3.28-7.576 3.28-6.566 3.278 9.09 3.28-4.545 3.28-8.585 3.278 2.525 3.28-8.081 3.28 7.576 3.279-17.677 3.279 8.08 3.28-2.525 3.279-2.525 3.279-8.08 3.28 16.666 3.279-9.596 3.279-11.616 3.28 2.525 3.279-9.596 3.279-1.01 3.28 7.07 3.279-3.535 3.279-4.545 3.28-2.525 3.279 5.555 3.279-7.575 3.28-9.091 3.279 13.636 3.279-6.06 3.28-8.587h3.279l3.279-3.03 3.28 8.081 3.279-9.596 3.279 2.02 3.28-12.626 3.279 6.566 3.279-.505 3.28-6.061 3.279 3.535 3.279-5.555 3.28 6.06 3.279-.505 3.279 1.01 3.28-8.586 3.279-7.575 3.279 15.151 3.28-6.06 3.279-8.586 3.28 3.535 3.278-.505 3.28-4.545 3.28.505 3.278-.505 3.28 3.03 3.28-5.05 3.278-5.556 3.28 6.06 3.28-7.07 3.278-3.03 3.28 7.07 3.28-8.08 3.278 3.535h3.28l3.28-3.03 3.278 3.03 3.28-7.576 3.28-1.01 3.278-7.071 3.28 10.606 3.28-8.08 3.279-1.516 3.279 4.546 3.28-5.05 3.279 3.534 3.279-4.545 3.28-1.515 3.279 2.525 3.279.505 3.28-4.04 3.279-.505 3.279.505 3.28-.505 3.279-1.515 3.279-3.03h3.28l3.279-1.01 3.279 1.514 3.28-2.525" fill="none" stroke="#ff7f0e" stroke-linecap="square" stroke-width="1.5" id="line2d_14"/><path d="M57.6 307.584V41.472" fill="none" stroke="#000" stroke-linecap="square" stroke-width=".8" id="patch_3"/><path d="M414.72 307.584V41.472" fill="none" stroke="#000" stroke-linecap="square" stroke-width=".8" id="patch_4"/><path d="M57.6 307.584h357.12" fill="none" stroke="#000" stroke-linecap="square" stroke-width=".8" id="patch_5"/><path d="M57.6 41.472h357.12" fill="none" stroke="#000" stroke-linecap="square" stroke-width=".8" id="patch_6"/><g id="text_15" font-family="DejaVu Sans" font-size="12" font-weight="400"><text transform="translate(112.047 22.035)">Simulated Mean for pow(x,1/3) Algorithm</text><text transform="translate(132.61 35.472)">(Wasserstein Distances in Legend)</text></g><g id="legend_1"><path d="M64.6 78.828h178.25q2 0 2-2V48.472q0-2-2-2H64.6q-2 0-2 2v28.356q0 2 2 2z" fill="#fff" opacity=".8" stroke="#ccc" id="patch_7"/><path d="M66.6 54.57h20" fill="none" stroke="#1f77b4" stroke-linecap="square" stroke-width="1.5" id="line2d_15"/><text x="94.6" y="58.07" font-family="DejaVu Sans" font-size="10" font-weight="400" id="text_16">pow(x,1/3)</text><path d="M66.6 69.249h20" fill="none" stroke="#ff7f0e" stroke-linecap="square" stroke-width="1.5" id="line2d_17"/><text x="94.6" y="72.749" font-family="DejaVu Sans" font-size="10" font-weight="400" id="text_17">Simul. Mean (WD=0.005447)</text></g></g></g><defs><clipPath id="p2b77477a6c"><path d="M57.6 41.472h357.12v266.112H57.6z"/></clipPath></defs></svg>
